X: 831
T: White Fryars Hornpipe
M:4/4
L:1/8
S: 8: MCJLSH3 http://www.cpartington.plus.com/links/Walsh.abc
Z: Pete Stewart 2004
B: Walsh "Third Book of the most Celebrated jiggs, Lancashire hornpipes, ..."
K:G
B2 | cBAG FGAF | GABGA2D2 | F2D2F2(A2 | A2)B2cBAG | FGAF GABG | ABcdB2G2 | G6 ||
B2 | cBcde4 | g4agfe | defd efge | a2A2A3B | cBcd e4 | g4agfe | defd ABcd | B2G2G2 ||

%%sep 1 1 500
%%sep 1 1 500
